assets/icons/localization-filled.svg

<?xml version="1.0" encoding="UTF-8" standalone="no"?>
<svg
   viewBox="0 0 24 24"
   height="24"
   id="svg7384"
   version="1.1"
   width="24"
   sodipodi:docname="localization-filled.svg"
   inkscape:version="1.2 (1:1.2.1+202207142221+cd75a1ee6d)"
   xmlns:inkscape="http://www.inkscape.org/namespaces/inkscape"
   xmlns:sodipodi="http://sodipodi.sourceforge.net/DTD/sodipodi-0.dtd"
   xmlns="http://www.w3.org/2000/svg"
   xmlns:svg="http://www.w3.org/2000/svg"
   xmlns:rdf="http://www.w3.org/1999/02/22-rdf-syntax-ns#"
   xmlns:cc="http://creativecommons.org/ns#"
   xmlns:dc="http://purl.org/dc/elements/1.1/">
  <sodipodi:namedview
     id="namedview24"
     pagecolor="#ffffff"
     bordercolor="#666666"
     borderopacity="1.0"
     inkscape:pageshadow="2"
     inkscape:pageopacity="0.0"
     inkscape:pagecheckerboard="0"
     showgrid="true"
     inkscape:snap-page="true"
     inkscape:zoom="22.627417"
     inkscape:cx="11.490485"
     inkscape:cy="9.9878833"
     inkscape:window-width="1920"
     inkscape:window-height="1043"
     inkscape:window-x="0"
     inkscape:window-y="0"
     inkscape:window-maximized="1"
     inkscape:current-layer="svg7384"
     inkscape:showpageshadow="2"
     inkscape:deskcolor="#d1d1d1">
    <inkscape:grid
       type="xygrid"
       id="grid894" />
  </sodipodi:namedview>
  <metadata
     id="metadata20854">
    <rdf:RDF>
      <cc:Work
         rdf:about="">
        <dc:format>image/svg+xml</dc:format>
        <dc:type
           rdf:resource="http://purl.org/dc/dcmitype/StillImage" />
      </cc:Work>
    </rdf:RDF>
  </metadata>
  <defs
     id="defs7386">
    <linearGradient
       id="linearGradient5606"
       inkscape:swatch="solid">
      <stop
         id="stop5608"
         offset="0"
         style="stop-color:#000000;stop-opacity:1;" />
    </linearGradient>
    <linearGradient
       id="linearGradient4526"
       inkscape:swatch="solid">
      <stop
         id="stop4528"
         offset="0"
         style="stop-color:#ffffff;stop-opacity:1;" />
    </linearGradient>
    <linearGradient
       id="linearGradient3600-4"
       inkscape:swatch="gradient">
      <stop
         id="stop3602-7"
         offset="0"
         style="stop-color:#f4f4f4;stop-opacity:1" />
      <stop
         id="stop3604-6"
         offset="1"
         style="stop-color:#dbdbdb;stop-opacity:1" />
    </linearGradient>
  </defs>
  <path
     id="path301"
     style="fill:#808080;fill-rule:evenodd;stroke-width:2;stroke-linecap:round;stroke-linejoin:round"
     d="M 11.5 2 A 9.5 9.5 0 0 0 10.625 2.0625 A 9.5 10.5 0 0 1 11.507812 2.5800781 A 9.5 10.5 0 0 1 12.423828 2.0449219 A 9.5 9.5 0 0 0 11.5 2 z M 8.8046875 2.3925781 A 9.5 9.5 0 0 0 2.0351562 11 L 7.03125 11 A 9.5 10.5 0 0 1 10.681641 3.2304688 A 8.5 9.5 0 0 0 8.8046875 2.3925781 z M 14.216797 2.3964844 A 8.5 9.5 0 0 0 12.355469 3.2324219 A 9.5 10.5 0 0 1 15.970703 11 L 20.986328 11 A 9.5 9.5 0 0 0 14.216797 2.3964844 z M 11.515625 3.8339844 A 8.5 9.5 0 0 0 8.03125 11 L 14.970703 11 A 8.5 9.5 0 0 0 11.515625 3.8339844 z M 2.0351562 12 A 9.5 9.5 0 0 0 8.7871094 20.601562 A 8.5 9.5 0 0 0 10.664062 19.753906 A 9.5 10.5 0 0 1 7.03125 12 L 2.0351562 12 z M 8.03125 12 A 8.5 9.5 0 0 0 11.5 19.154297 A 8.5 9.5 0 0 0 14.96875 12 L 8.03125 12 z M 15.96875 12 A 9.5 10.5 0 0 1 12.335938 19.753906 A 8.5 9.5 0 0 0 14.212891 20.601562 A 9.5 9.5 0 0 0 20.964844 12 L 15.96875 12 z M 11.5 20.416016 A 9.5 10.5 0 0 1 10.613281 20.935547 A 9.5 9.5 0 0 0 11.5 21 A 9.5 9.5 0 0 0 12.386719 20.935547 A 9.5 10.5 0 0 1 11.5 20.416016 z " />
  <g
     id="layer9"
     label="status"
     style="display:inline;stroke-width:0.8"
     transform="matrix(1.25,0,0,1.25,-1064.2503,260.75)" />
  <g
     id="layer2"
     style="display:inline;stroke-width:0.8"
     transform="matrix(1.25,0,0,1.25,-763.00005,-198)" />
  <g
     id="layer4"
     style="display:inline;stroke-width:0.8"
     transform="matrix(1.25,0,0,1.25,-763.00005,-198)" />
  <g
     id="g1812"
     style="display:inline;stroke-width:0.8"
     transform="matrix(1.25,0,0,1.25,-763.00005,-198)" />
  <g
     id="g6217"
     style="display:inline;stroke-width:0.8"
     transform="matrix(1.25,0,0,1.25,-763.00005,-198)" />
  <g
     id="layer3"
     style="display:inline;stroke-width:0.8"
     transform="matrix(1.25,0,0,1.25,-763.00005,-198)" />
  <g
     id="layer1"
     style="display:inline;stroke-width:0.8"
     transform="matrix(1.25,0,0,1.25,-763.00005,-198)" />
</svg>

<svg height="24" width="24" xmlns="http://www.w3.org/2000/svg"><path style="fill:gray;stroke-width:2;stroke-linecap:round;stroke-linejoin:round" d="M11.5 2a9.5 9.5 0 0 0-.875.063 9.5 10.5 0 0 1 .883.517 9.5 10.5 0 0 1 .916-.535A9.5 9.5 0 0 0 11.5 2zm-2.695.393A9.5 9.5 0 0 0 2.035 11h4.996a9.5 10.5 0 0 1 3.65-7.77 8.5 9.5 0 0 0-1.876-.837zm5.412.003a8.5 9.5 0 0 0-1.862.836A9.5 10.5 0 0 1 15.971 11h5.015a9.5 9.5 0 0 0-6.77-8.604zm-2.701 1.438A8.5 9.5 0 0 0 8.03 11h6.94a8.5 9.5 0 0 0-3.455-7.166zM2.036 12a9.5 9.5 0 0 0 6.751 8.602 8.5 9.5 0 0 0 1.877-.848A9.5 10.5 0 0 1 7.031 12H2.035zm5.995 0a8.5 9.5 0 0 0 3.469 7.154A8.5 9.5 0 0 0 14.969 12H8.03zm7.938 0a9.5 10.5 0 0 1-3.633 7.754 8.5 9.5 0 0 0 1.877.848A9.5 9.5 0 0 0 20.965 12h-4.996zM11.5 20.416a9.5 10.5 0 0 1-.887.52A9.5 9.5 0 0 0 11.5 21a9.5 9.5 0 0 0 .887-.064 9.5 10.5 0 0 1-.887-.52z"/></svg>
